X: 1
T:Den norske Daleviise
T:Fieldbyggen acter paa Tiden
C:anon., words: Petter Dass
O:Norway
Z:Transcribed by Frank Nordberg - http://www.musicaviva.com
M:C
L:1/8
Q:240
K:Em
"Em"G2 G>E "B7"B,2 B,>^D|"Em"E2E4 z2:|"Em"E>F G>A B2 "Am"c>B|"F#7"^A2"B"B4z2|
w:Field- byg- gen ac- ter paa Ti- den Tar hand \Ox paa Nac- ken i Bac- ken.
w:Vin- ter naar Da- gen er li- den.
M:3/4
"Em"G>A G>F G2|"Em"G>A G>F G2|"Em"G>A G>F G2|"Em"G>A G>E "B7"HB,2|
w:Gaar i dy- ben Snee, Op til L\aen- der- ne, Fin- der sig et Tr\aee, Kraa- get til at see,
M:C
"Em"E>F G>A B2 "Am"c>B|"F#7"^A2"B"B4z2|"Em"G>A G>F G2 "B7"F>^D|"Em"E2E4z2|]
w:Hug- ger der- af Mey- e, som pley- e, Bru- gis un- der Sle- de paa Vey- e.
